Papirus/16x16/actions/node-type-auto-smooth.svg

<?xml version="1.0" encoding="UTF-8" standalone="no"?>
<svg xmlns:osb="http://www.openswatchbook.org/uri/2009/osb" xmlns:dc="http://purl.org/dc/elements/1.1/" xmlns:cc="http://creativecommons.org/ns#" xmlns:rdf="http://www.w3.org/1999/02/22-rdf-syntax-ns#" xmlns:svg="http://www.w3.org/2000/svg" xmlns="http://www.w3.org/2000/svg" version="1.1" id="svg6394" viewBox="0 0 16 16" height="16" width="16">
    <defs id="defs6396">
        <linearGradient gradientTransform="matrix(-0.40801424,2.7359005,1.4465395,0.18903615,2588.4859,828.26016)" osb:paint="solid" id="linearGradient19282">
            <stop id="stop19284" offset="0" style="stop-color:#000000;stop-opacity:1;"/>
        </linearGradient>
        <linearGradient gradientTransform="matrix(-2.7359006,0.40801425,-0.18903616,-1.4465395,-804.26018,-2564.486)" osb:paint="solid" id="linearGradient19282-3">
            <stop id="stop19284-6" offset="0" style="stop-color:#000000;stop-opacity:1;"/>
        </linearGradient>
        <linearGradient id="linearGradient19282-36" osb:paint="solid" gradientTransform="matrix(-2.73658,0.4081035,-0.1890831,-1.446856,-1254.4599,-3933.7766)">
            <stop style="stop-color:#666666;stop-opacity:1;" offset="0" id="stop19284-7"/>
        </linearGradient>
    </defs>
    <metadata id="metadata6399">
        <rdf:RDF>
            <cc:Work rdf:about="">
                <dc:format>
                    image/svg+xml
                </dc:format>
                <dc:type rdf:resource="http://purl.org/dc/dcmitype/StillImage"/>
                <dc:title/>
            </cc:Work>
        </rdf:RDF>
    </metadata>
    <path id="path5383" d="m 15.419114,2.0001467 a 0.49827785,0.5017784 0 0 0 -0.478767,0.5879621 c 0.217646,1.6001825 -0.144476,3.8694593 -1.257248,5.6757989 -0.573022,0.9301618 -1.333945,1.7397693 -2.317926,2.3106943 A 3.4875953,3.5120967 0 0 0 7.9982391,7.9758064 3.4875953,3.5120967 0 0 0 4.6235223,10.621639 C 3.6061508,10.050018 2.8273309,9.2256493 2.2511005,8.269788 1.1634989,6.4656319 0.83297456,4.1961444 1.0755915,2.5959488 A 0.49827785,0.5017784 0 0 0 0.5520637,2.0119062 0.49827785,0.5017784 0 0 0 0.09081427,2.445038 C -0.19182045,4.3091747 0.16933499,6.7498227 1.3986624,8.7891548 2.1144665,9.9765446 3.1566795,11.007786 4.516483,11.672132 A 3.4875953,3.5120967 0 0 0 7.9982391,15 3.4875953,3.5120967 0 0 0 11.479995,11.623135 c 1.317613,-0.665341 2.33912,-1.6734389 3.051646,-2.8300607 1.254966,-2.0371475 1.648985,-4.4760465 1.395427,-6.3401963 A 0.49827785,0.5017784 0 0 0 15.419114,2.0001467 Z" style="color:#000000;font-style:normal;font-variant:normal;font-weight:normal;font-stretch:normal;font-size:medium;line-height:normal;font-family:sans-serif;text-indent:0;text-align:start;text-decoration:none;text-decoration-line:none;text-decoration-style:solid;text-decoration-color:#000000;letter-spacing:normal;word-spacing:normal;text-transform:none;direction:ltr;block-progression:tb;writing-mode:lr-tb;baseline-shift:baseline;text-anchor:start;white-space:normal;clip-rule:nonzero;display:inline;overflow:visible;visibility:visible;opacity:0.5;isolation:auto;mix-blend-mode:normal;color-interpolation:sRGB;color-interpolation-filters:linearRGB;solid-color:#000000;solid-opacity:1;fill:#000000;fill-opacity:1;fill-rule:nonzero;stroke:none;stroke-width:1.00000024;stroke-linecap:round;stroke-linejoin:round;stroke-miterlimit:0;stroke-dasharray:none;stroke-dashoffset:0;stroke-opacity:1;color-rendering:auto;image-rendering:auto;shape-rendering:auto;text-rendering:auto;enable-background:accumulate"/>
</svg>

<?xml version="1.0" encoding="UTF-8" standalone="no"?>
<svg id="svg6394" xmlns:rdf="http://www.w3.org/1999/02/22-rdf-syntax-ns#" xmlns="http://www.w3.org/2000/svg" xmlns:osb="http://www.openswatchbook.org/uri/2009/osb" viewBox="0 0 16 16" width="16" version="1.1" xmlns:cc="http://creativecommons.org/ns#" height="16" xmlns:dc="http://purl.org/dc/elements/1.1/">
 <metadata id="metadata6399">
  <rdf:RDF>
   <cc:Work rdf:about="">
    <dc:format>image/svg+xml</dc:format>
    <dc:type rdf:resource="http://purl.org/dc/dcmitype/StillImage"/>
    <dc:title/>
   </cc:Work>
  </rdf:RDF>
 </metadata>
 <path id="path5383" opacity=".5" style="color-rendering:auto;text-decoration-color:#000000;color:#000000;isolation:auto;mix-blend-mode:normal;shape-rendering:auto;solid-color:#000000;block-progression:tb;text-decoration-line:none;text-decoration-style:solid;image-rendering:auto;white-space:normal;text-indent:0;text-transform:none" d="m15.419 2.0001a0.49828 0.50178 0 0 0 -0.47877 0.58796c0.21765 1.6002-0.14448 3.8695-1.2572 5.6758-0.57302 0.93016-1.3339 1.7398-2.3179 2.3107a3.4876 3.5121 0 0 0 -3.3668 -2.5992 3.4876 3.5121 0 0 0 -3.3747 2.6462c-1.0173-0.572-1.7962-1.3964-2.3724-2.3522-1.0876-1.8042-1.4181-4.0737-1.1755-5.6739a0.49828 0.50178 0 0 0 -0.52354 -0.584 0.49828 0.50178 0 0 0 -0.46125 0.4331c-0.28263 1.8642 0.07852 4.3048 1.3079 6.3442 0.7158 1.1873 1.758 2.2188 3.1178 2.8828a3.4876 3.5121 0 0 0 3.4817 3.328 3.4876 3.5121 0 0 0 3.4818 -3.377c1.3176-0.66534 2.3391-1.6734 3.0516-2.8301 1.255-2.0371 1.649-4.476 1.3954-6.3402a0.49828 0.50178 0 0 0 -0.508 -0.4526z"/>
</svg>
